X:5
L:1/8
M:4/4
K:F
 FE | D2 DE FEFG | ABAF D2 FD | E2 EF GECE | GFED C2 FE |
 D2 DE FEFG | A2 d2 d2 A2 | B3 A GFEC | DEFE D4 ||
 A2 d2 defe | dedc A2 A2 |  B3 A GABG | ABAF D4 |
 A2 d2 defe | dedc A2 A2 | G3 F E2 C2 | DEFE D4 |]
